X:141
T:Lord Jesus Think On Me
%%stretchlast false
M:4/4
L:1/4
K:F clef=C1
"^vi"[DFAd] [DFAf] "^IV"[B,Fdf] "^viiø7¹"[G,Bde] | "^V/vi"[A,A_de] "^vi"[DFd]3 | [DFAf] [DFAf] "^I²"[CFAf] "^ii7¹"[B,Fdg] | "^V"[CEcg] "^I"[F,Fca]3 | [Fca] [FAfc'] "^V"[CGec'] "^IV¹"[DFdb] | "^V7¹"[EGcb] "^I"[Fca] "^I¹"[A,Fca] "^V"[CEcg] | "^III"[A,E_da] "^ii¹"[B,Gdg] "^vi²"[A,Adf] "^viiø7¹"[G,Bde] | "^III"[A,A_de]/ "^III7"[A,G_de]/ "^vi"[D,Fd]3 |]
